symbols/web/videocam/materialsymbolsrounded/videocam_gradN25fill1_48px.svg

<svg xmlns="http://www.w3.org/2000/svg" height="48" width="48"><path d="M7.2 39.75q-1.2 0-2.05-.85-.85-.85-.85-2V11.1q0-1.15.85-2.025T7.2 8.2H33q1.1 0 1.975.875t.875 2.025v10.75l6.6-6.6q.4-.4.85-.2.45.2.45.65v16.55q0 .5-.45.675-.45.175-.85-.225l-6.6-6.6v10.8q0 1.15-.875 2-.875.85-1.975.85Z"/></svg>

<svg xmlns="http://www.w3.org/2000/svg" height="48" width="48"><path d="M7.2 39.75Q6 39.75 5.15 38.9Q4.3 38.05 4.3 36.9V11.1Q4.3 9.95 5.15 9.075Q6 8.2 7.2 8.2H33Q34.1 8.2 34.975 9.075Q35.85 9.95 35.85 11.1V21.85L42.45 15.25Q42.85 14.85 43.3 15.05Q43.75 15.25 43.75 15.7V32.25Q43.75 32.75 43.3 32.925Q42.85 33.1 42.45 32.7L35.85 26.1V36.9Q35.85 38.05 34.975 38.9Q34.1 39.75 33 39.75Z"/></svg>
